X:1
T:Szólj, síp, szólj
O:Magyar népdal
M:2/4
L:1/8
K:C
d2B2 | d2z2 | dd cc | d2B2 | dd cc |
w:Szólj, síp, szólj, ke-rék a-lá tesz-lek, on-nan is ki
d2B2 | dd cc | d2B2 | dc BA | G2G2 |]
w:vesz-lek, for-ró víz-be tesz-lek, on-nan is ki-vesz-lek.

